Newaita-dark/apps/48/usb-creator-kde.svg

<svg height="48pt" viewBox="0 0 48 48" width="48pt" xmlns="http://www.w3.org/2000/svg" xmlns:xlink="http://www.w3.org/1999/xlink"><linearGradient id="a" gradientUnits="userSpaceOnUse" x1="19.84566809347" x2="19.84566809347" y1="42.05090309362" y2="44.03546759352"><stop offset="0" stop-opacity=".27451"/><stop offset="1" stop-opacity="0"/></linearGradient><linearGradient id="b"><stop offset="0" stop-opacity=".313726"/><stop offset=".222222" stop-opacity=".27451"/><stop offset="1" stop-opacity="0"/></linearGradient><radialGradient id="c" cx="450.908936" cy="189.579361" gradientTransform="matrix(.00000026 -.117199 -.210958 -.00000015 65.296308 95.392999)" gradientUnits="userSpaceOnUse" r="21.166656" xlink:href="#b"/><radialGradient id="d" cx="450.908936" cy="189.579361" gradientTransform="matrix(-.00000026 .117199 .210958 .00000015 -25.605013 -11.291218)" gradientUnits="userSpaceOnUse" r="21.166656" xlink:href="#b"/><radialGradient id="e" cx="450.908936" cy="189.579361" gradientTransform="matrix(-.00000026 -.117199 .210958 -.00000015 -25.605013 95.392999)" gradientUnits="userSpaceOnUse" r="21.166656" xlink:href="#b"/><radialGradient id="f" cx="450.908936" cy="189.579361" gradientTransform="matrix(.00000026 .117199 -.210958 .00000015 65.296305 -11.291219)" gradientUnits="userSpaceOnUse" r="21.166656" xlink:href="#b"/><linearGradient id="g" gradientUnits="userSpaceOnUse" x1="211.666672" x2="211.666672" y1="-41.666668" y2="-126.333344"><stop offset="0" stop-color="#ffca28"/><stop offset="1" stop-color="#ffe082"/></linearGradient><linearGradient id="h" gradientUnits="userSpaceOnUse" x1="211.666352" x2="211.666352" y1="-20.50024695395" y2="-168.66671875188"><stop offset="0" stop-color="#bdbdbd"/><stop offset="1" stop-color="#e0e0e0"/></linearGradient><linearGradient id="i"><stop offset="0" stop-color="#5c6bc0"/><stop offset="1" stop-color="#7986cb"/></linearGradient><linearGradient id="j" gradientUnits="userSpaceOnUse" x1="211.666352" x2="211.666352" xlink:href="#i" y1="233.49944918561" y2="-20.50024695395"/><linearGradient id="k" gradientUnits="userSpaceOnUse" x1="211.666672" x2="211.666672" xlink:href="#i" y1="85.333336" y2="138.25"/><linearGradient id="l" gradientUnits="userSpaceOnUse" x1="322.791639" x2="322.791639" y1="34.50943269278" y2="233.6233585"><stop offset="0" stop-color="#e0e0e0"/><stop offset="1" stop-color="#bdbdbd"/></linearGradient><linearGradient id="m" gradientUnits="userSpaceOnUse" x1="322.791639" x2="322.791639" y1="175.98512286443" y2="92.14767625"><stop offset="0" stop-color="#f5f5f5"/><stop offset="1" stop-color="#e0e0e0"/></linearGradient><path d="m13.890625 42.050781h11.910156v1.984375h-11.910156zm0 0" fill="url(#a)"/><path d="m25.800781 42.050781h3.96875v-1.984375h-3.96875zm0 0" fill="url(#c)"/><path d="m13.890625 42.050781h-3.96875v1.984375h3.96875zm0 0" fill="url(#d)"/><path d="m13.890625 42.050781h-3.96875v-1.984375h3.96875zm0 0" fill="url(#e)"/><path d="m25.800781 42.050781h3.96875v1.984375h-3.96875zm0 0" fill="url(#f)"/><g stroke-width="3"><path d="m158.734842-126.3418h105.86489c5.832776 0 10.582323 4.749547 10.582323 10.582323v63.493937c0 5.874439-4.749547 10.582322-10.582323 10.582322h-105.86489c-5.832777 0-10.582323-4.707883-10.582323-10.582322v-63.493937c0-5.832776 4.749546-10.582323 10.582323-10.582323zm0 0" fill="url(#g)" stroke="#212121" stroke-linecap="square" stroke-linejoin="round" transform="matrix(.093759 0 0 .093759 0 20.158175)"/><path d="m148.152519-168.671091c-5.832777 0-10.582323 4.707884-10.582323 10.582323v137.570196c0 5.874439 4.749546 10.582323 10.582323 10.582323h127.029536c5.832776 0 10.582323-4.707884 10.582323-10.582323v-137.570196c0-5.874439-4.749547-10.582323-10.582323-10.582323zm21.164645 52.911614c5.874439 0 10.582323 4.749546 10.582323 10.582323v42.329291c0 5.874439-4.707884 10.582323-10.582323 10.582323-5.832776 0-10.582322-4.707884-10.582322-10.582323v-42.329291c0-5.832777 4.749546-10.582323 10.582322-10.582323zm42.329291 0c5.874439 0 10.623986 4.749546 10.623986 10.582323v42.329291c0 5.874439-4.749547 10.582323-10.623986 10.582323-5.832776 0-10.582322-4.707884-10.582322-10.582323v-42.329291c0-5.832777 4.749546-10.582323 10.582322-10.582323zm42.370954 0c5.832777 0 10.582323 4.749546 10.582323 10.582323v42.329291c0 5.874439-4.749546 10.582323-10.582323 10.582323-5.874439 0-10.582323-4.707884-10.582323-10.582323v-42.329291c0-5.832777 4.707884-10.582323 10.582323-10.582323zm0 0" fill="url(#h)" stroke="#212121" stroke-linecap="square" stroke-linejoin="round" transform="matrix(.093759 0 0 .093759 0 20.158175)"/><path d="m126.987873-20.518572c-11.707215 0-21.164645 9.45743-21.164645 21.164645v84.700245c5.874439 0 10.582322 4.707884 10.582322 10.582323v31.746968c0 5.874439-4.707883 10.582323-10.582322 10.582323v74.07626c0 11.707215 9.45743 21.164645 21.164645 21.164645h169.358827c11.707216 0 21.164646-9.45743 21.164646-21.164645v-74.07626c-5.874439 0-10.582323-4.707884-10.582323-10.582323v-31.746968c0-5.874439 4.707884-10.582323 10.582323-10.582323v-84.700245c0-11.707215-9.45743-21.164645-21.164646-21.164645zm0 0" fill="url(#j)" stroke="#212121" stroke-linecap="square" stroke-linejoin="round" transform="matrix(.093759 0 0 .093759 0 20.158175)"/><path d="m148.152519 85.346318h127.029536c5.832776 0 10.582323 4.707884 10.582323 10.582323v31.746968c0 5.832777-4.749547 10.582323-10.582323 10.582323h-127.029536c-5.832777 0-10.582323-4.749546-10.582323-10.582323v-31.746968c0-5.874439 4.749546-10.582323 10.582323-10.582323zm0 0" fill="url(#k)" stroke="#212121" stroke-linecap="square" stroke-linejoin="round" transform="matrix(.093759 0 0 .093759 0 20.158175)"/><path d="m322.802507 34.517839c-55.161399 0-99.573824 44.412425-99.573824 99.532162 0 55.161399 44.412425 99.573824 99.573824 99.573824s99.532162-44.412425 99.532162-99.573824c0-55.119737-44.370763-99.532162-99.532162-99.532162zm0 78.57583c11.582228 0 20.956332 9.374104 20.956332 20.956332 0 11.62389-9.374104 20.956332-20.956332 20.956332-11.62389 0-20.956332-9.332442-20.956332-20.956332 0-11.582228 9.332442-20.956332 20.956332-20.956332zm0 0" fill="url(#l)" stroke="#333" stroke-linecap="round" transform="matrix(.093759 0 0 .093759 0 20.158175)"/><path d="m322.802507 92.137337c-23.24778 0-41.912664 18.706546-41.912664 41.912664 0 23.24778 18.664884 41.954327 41.912664 41.954327 23.206117 0 41.912664-18.706547 41.912664-41.954327 0-23.206118-18.706547-41.912664-41.912664-41.912664zm0 20.956332c11.582228 0 20.956332 9.374104 20.956332 20.956332 0 11.62389-9.374104 20.956332-20.956332 20.956332-11.62389 0-20.956332-9.332442-20.956332-20.956332 0-11.582228 9.332442-20.956332 20.956332-20.956332zm0 0" fill="url(#m)" stroke="#333" stroke-linecap="round" transform="matrix(.093759 0 0 .093759 0 20.158175)"/></g></svg>

<?xml version="1.0" encoding="UTF-8"?>
<svg xmlns="http://www.w3.org/2000/svg" xmlns:xlink="http://www.w3.org/1999/xlink" width="48pt" height="48pt" viewBox="0 0 48 48" version="1.1">
<defs>
<linearGradient id="linear0" gradientUnits="userSpaceOnUse" x1="507.999969" y1="233.499985" x2="507.999969" y2="254.666641" gradientTransform="matrix(0.093759,0,0,0.093759,-27.783901,20.158178)">
<stop offset="0" style="stop-color:rgb(0%,0%,0%);stop-opacity:0.27451;"/>
<stop offset="1" style="stop-color:rgb(0%,0%,0%);stop-opacity:0;"/>
</linearGradient>
<radialGradient id="radial0" gradientUnits="userSpaceOnUse" cx="450.908936" cy="189.579361" fx="450.908936" fy="189.579361" r="21.166656" gradientTransform="matrix(0.000000261256,-0.117199,-0.210958,-0.000000152308,65.296308,95.392999)">
<stop offset="0" style="stop-color:rgb(0%,0%,0%);stop-opacity:0.313726;"/>
<stop offset="0.222222" style="stop-color:rgb(0%,0%,0%);stop-opacity:0.27451;"/>
<stop offset="1" style="stop-color:rgb(0%,0%,0%);stop-opacity:0;"/>
</radialGradient>
<radialGradient id="radial1" gradientUnits="userSpaceOnUse" cx="450.908936" cy="189.579361" fx="450.908936" fy="189.579361" r="21.166656" gradientTransform="matrix(-0.000000261256,0.117199,0.210958,0.000000152308,-25.605013,-11.291218)">
<stop offset="0" style="stop-color:rgb(0%,0%,0%);stop-opacity:0.313726;"/>
<stop offset="0.222222" style="stop-color:rgb(0%,0%,0%);stop-opacity:0.27451;"/>
<stop offset="1" style="stop-color:rgb(0%,0%,0%);stop-opacity:0;"/>
</radialGradient>
<radialGradient id="radial2" gradientUnits="userSpaceOnUse" cx="450.908936" cy="189.579361" fx="450.908936" fy="189.579361" r="21.166656" gradientTransform="matrix(-0.000000261256,-0.117199,0.210958,-0.000000152308,-25.605013,95.392999)">
<stop offset="0" style="stop-color:rgb(0%,0%,0%);stop-opacity:0.313726;"/>
<stop offset="0.222222" style="stop-color:rgb(0%,0%,0%);stop-opacity:0.27451;"/>
<stop offset="1" style="stop-color:rgb(0%,0%,0%);stop-opacity:0;"/>
</radialGradient>
<radialGradient id="radial3" gradientUnits="userSpaceOnUse" cx="450.908936" cy="189.579361" fx="450.908936" fy="189.579361" r="21.166656" gradientTransform="matrix(0.000000261256,0.117199,-0.210958,0.000000152308,65.296305,-11.291219)">
<stop offset="0" style="stop-color:rgb(0%,0%,0%);stop-opacity:0.313726;"/>
<stop offset="0.222222" style="stop-color:rgb(0%,0%,0%);stop-opacity:0.27451;"/>
<stop offset="1" style="stop-color:rgb(0%,0%,0%);stop-opacity:0;"/>
</radialGradient>
<linearGradient id="linear1" gradientUnits="userSpaceOnUse" x1="254" y1="-41.666668" x2="254" y2="-126.333344" gradientTransform="matrix(1,0,0,1,-42.333328,0)">
<stop offset="0" style="stop-color:rgb(100%,79.215688%,15.686275%);stop-opacity:1;"/>
<stop offset="1" style="stop-color:rgb(100%,87.843138%,50.980395%);stop-opacity:1;"/>
</linearGradient>
<linearGradient id="linear2" gradientUnits="userSpaceOnUse" x1="960" y1="735.118103" x2="960" y2="175.118134" gradientTransform="matrix(0.264583,0,0,0.264583,-42.333328,-215)">
<stop offset="0" style="stop-color:rgb(74.117649%,74.117649%,74.117649%);stop-opacity:1;"/>
<stop offset="1" style="stop-color:rgb(87.843138%,87.843138%,87.843138%);stop-opacity:1;"/>
</linearGradient>
<linearGradient id="linear3" gradientUnits="userSpaceOnUse" x1="960" y1="1695.118164" x2="960" y2="735.118103" gradientTransform="matrix(0.264583,0,0,0.264583,-42.333328,-215)">
<stop offset="0" style="stop-color:rgb(36.078432%,41.960785%,75.294119%);stop-opacity:1;"/>
<stop offset="1" style="stop-color:rgb(47.450981%,52.549022%,79.607844%);stop-opacity:1;"/>
</linearGradient>
<linearGradient id="linear4" gradientUnits="userSpaceOnUse" x1="254" y1="85.333336" x2="254" y2="138.25" gradientTransform="matrix(1,0,0,1,-42.333328,0)">
<stop offset="0" style="stop-color:rgb(36.078432%,41.960785%,75.294119%);stop-opacity:1;"/>
<stop offset="1" style="stop-color:rgb(47.450981%,52.549022%,79.607844%);stop-opacity:1;"/>
</linearGradient>
<linearGradient id="linear5" gradientUnits="userSpaceOnUse" x1="254" y1="-168.666672" x2="254" y2="233.5" gradientTransform="matrix(0.495103,0,0,0.495103,197.035477,118.016808)">
<stop offset="0" style="stop-color:rgb(87.843138%,87.843138%,87.843138%);stop-opacity:1;"/>
<stop offset="1" style="stop-color:rgb(74.117649%,74.117649%,74.117649%);stop-opacity:1;"/>
</linearGradient>
<linearGradient id="linear6" gradientUnits="userSpaceOnUse" x1="254" y1="117.083344" x2="254" y2="-52.25" gradientTransform="matrix(0.495103,0,0,0.495103,197.035477,118.016808)">
<stop offset="0" style="stop-color:rgb(96.078432%,96.078432%,96.078432%);stop-opacity:1;"/>
<stop offset="1" style="stop-color:rgb(87.843138%,87.843138%,87.843138%);stop-opacity:1;"/>
</linearGradient>
</defs>
<g id="surface1">
<path style=" stroke:none;fill-rule:nonzero;fill:url(#linear0);" d="M 13.890625 42.050781 L 25.800781 42.050781 L 25.800781 44.035156 L 13.890625 44.035156 Z M 13.890625 42.050781 "/>
<path style=" stroke:none;fill-rule:nonzero;fill:url(#radial0);" d="M 25.800781 42.050781 L 29.769531 42.050781 L 29.769531 40.066406 L 25.800781 40.066406 Z M 25.800781 42.050781 "/>
<path style=" stroke:none;fill-rule:nonzero;fill:url(#radial1);" d="M 13.890625 42.050781 L 9.921875 42.050781 L 9.921875 44.035156 L 13.890625 44.035156 Z M 13.890625 42.050781 "/>
<path style=" stroke:none;fill-rule:nonzero;fill:url(#radial2);" d="M 13.890625 42.050781 L 9.921875 42.050781 L 9.921875 40.066406 L 13.890625 40.066406 Z M 13.890625 42.050781 "/>
<path style=" stroke:none;fill-rule:nonzero;fill:url(#radial3);" d="M 25.800781 42.050781 L 29.769531 42.050781 L 29.769531 44.035156 L 25.800781 44.035156 Z M 25.800781 42.050781 "/>
<path style="fill-rule:nonzero;fill:url(#linear1);stroke-width:3;stroke-linecap:square;stroke-linejoin:round;stroke:rgb(12.941177%,12.941177%,12.941177%);stroke-opacity:1;stroke-miterlimit:4;" d="M 158.734842 -126.3418 L 264.599732 -126.3418 C 270.432508 -126.3418 275.182055 -121.592253 275.182055 -115.759477 L 275.182055 -52.26554 C 275.182055 -46.391101 270.432508 -41.683218 264.599732 -41.683218 L 158.734842 -41.683218 C 152.902065 -41.683218 148.152519 -46.391101 148.152519 -52.26554 L 148.152519 -115.759477 C 148.152519 -121.592253 152.902065 -126.3418 158.734842 -126.3418 Z M 158.734842 -126.3418 " transform="matrix(0.093759,0,0,0.093759,0,20.158175)"/>
<path style="fill-rule:nonzero;fill:url(#linear2);stroke-width:3;stroke-linecap:square;stroke-linejoin:round;stroke:rgb(12.941177%,12.941177%,12.941177%);stroke-opacity:1;stroke-miterlimit:4;" d="M 148.152519 -168.671091 C 142.319742 -168.671091 137.570196 -163.963207 137.570196 -158.088768 L 137.570196 -20.518572 C 137.570196 -14.644133 142.319742 -9.936249 148.152519 -9.936249 L 275.182055 -9.936249 C 281.014831 -9.936249 285.764378 -14.644133 285.764378 -20.518572 L 285.764378 -158.088768 C 285.764378 -163.963207 281.014831 -168.671091 275.182055 -168.671091 Z M 169.317164 -115.759477 C 175.191603 -115.759477 179.899487 -111.009931 179.899487 -105.177154 L 179.899487 -62.847863 C 179.899487 -56.973424 175.191603 -52.26554 169.317164 -52.26554 C 163.484388 -52.26554 158.734842 -56.973424 158.734842 -62.847863 L 158.734842 -105.177154 C 158.734842 -111.009931 163.484388 -115.759477 169.317164 -115.759477 Z M 211.646455 -115.759477 C 217.520894 -115.759477 222.270441 -111.009931 222.270441 -105.177154 L 222.270441 -62.847863 C 222.270441 -56.973424 217.520894 -52.26554 211.646455 -52.26554 C 205.813679 -52.26554 201.064133 -56.973424 201.064133 -62.847863 L 201.064133 -105.177154 C 201.064133 -111.009931 205.813679 -115.759477 211.646455 -115.759477 Z M 254.017409 -115.759477 C 259.850186 -115.759477 264.599732 -111.009931 264.599732 -105.177154 L 264.599732 -62.847863 C 264.599732 -56.973424 259.850186 -52.26554 254.017409 -52.26554 C 248.14297 -52.26554 243.435086 -56.973424 243.435086 -62.847863 L 243.435086 -105.177154 C 243.435086 -111.009931 248.14297 -115.759477 254.017409 -115.759477 Z M 254.017409 -115.759477 " transform="matrix(0.093759,0,0,0.093759,0,20.158175)"/>
<path style="fill-rule:nonzero;fill:url(#linear3);stroke-width:3;stroke-linecap:square;stroke-linejoin:round;stroke:rgb(12.941177%,12.941177%,12.941177%);stroke-opacity:1;stroke-miterlimit:4;" d="M 126.987873 -20.518572 C 115.280658 -20.518572 105.823228 -11.061142 105.823228 0.646073 L 105.823228 85.346318 C 111.697667 85.346318 116.40555 90.054202 116.40555 95.928641 L 116.40555 127.675609 C 116.40555 133.550048 111.697667 138.257932 105.823228 138.257932 L 105.823228 212.334192 C 105.823228 224.041407 115.280658 233.498837 126.987873 233.498837 L 296.3467 233.498837 C 308.053916 233.498837 317.511346 224.041407 317.511346 212.334192 L 317.511346 138.257932 C 311.636907 138.257932 306.929023 133.550048 306.929023 127.675609 L 306.929023 95.928641 C 306.929023 90.054202 311.636907 85.346318 317.511346 85.346318 L 317.511346 0.646073 C 317.511346 -11.061142 308.053916 -20.518572 296.3467 -20.518572 Z M 126.987873 -20.518572 " transform="matrix(0.093759,0,0,0.093759,0,20.158175)"/>
<path style="fill-rule:nonzero;fill:url(#linear4);stroke-width:3;stroke-linecap:square;stroke-linejoin:round;stroke:rgb(12.941177%,12.941177%,12.941177%);stroke-opacity:1;stroke-miterlimit:4;" d="M 148.152519 85.346318 L 275.182055 85.346318 C 281.014831 85.346318 285.764378 90.054202 285.764378 95.928641 L 285.764378 127.675609 C 285.764378 133.508386 281.014831 138.257932 275.182055 138.257932 L 148.152519 138.257932 C 142.319742 138.257932 137.570196 133.508386 137.570196 127.675609 L 137.570196 95.928641 C 137.570196 90.054202 142.319742 85.346318 148.152519 85.346318 Z M 148.152519 85.346318 " transform="matrix(0.093759,0,0,0.093759,0,20.158175)"/>
<path style="fill-rule:nonzero;fill:url(#linear5);stroke-width:3;stroke-linecap:round;stroke-linejoin:miter;stroke:rgb(20%,20%,20%);stroke-opacity:1;stroke-miterlimit:4;" d="M 322.802507 34.517839 C 267.641108 34.517839 223.228683 78.930264 223.228683 134.050001 C 223.228683 189.2114 267.641108 233.623825 322.802507 233.623825 C 377.963906 233.623825 422.334669 189.2114 422.334669 134.050001 C 422.334669 78.930264 377.963906 34.517839 322.802507 34.517839 Z M 322.802507 113.093669 C 334.384735 113.093669 343.758839 122.467773 343.758839 134.050001 C 343.758839 145.673891 334.384735 155.006333 322.802507 155.006333 C 311.178617 155.006333 301.846175 145.673891 301.846175 134.050001 C 301.846175 122.467773 311.178617 113.093669 322.802507 113.093669 Z M 322.802507 113.093669 " transform="matrix(0.093759,0,0,0.093759,0,20.158175)"/>
<path style="fill-rule:nonzero;fill:url(#linear6);stroke-width:3;stroke-linecap:round;stroke-linejoin:miter;stroke:rgb(20%,20%,20%);stroke-opacity:1;stroke-miterlimit:4;" d="M 322.802507 92.137337 C 299.554727 92.137337 280.889843 110.843883 280.889843 134.050001 C 280.889843 157.297781 299.554727 176.004328 322.802507 176.004328 C 346.008624 176.004328 364.715171 157.297781 364.715171 134.050001 C 364.715171 110.843883 346.008624 92.137337 322.802507 92.137337 Z M 322.802507 113.093669 C 334.384735 113.093669 343.758839 122.467773 343.758839 134.050001 C 343.758839 145.673891 334.384735 155.006333 322.802507 155.006333 C 311.178617 155.006333 301.846175 145.673891 301.846175 134.050001 C 301.846175 122.467773 311.178617 113.093669 322.802507 113.093669 Z M 322.802507 113.093669 " transform="matrix(0.093759,0,0,0.093759,0,20.158175)"/>
</g>
</svg>
